albertroad.htmlalbertroad.htmlalbertroad.htmlalbertroad.htmlalbertroad.htmlalbertroad.htmlalbertroad.htmlalbertroad.htmlalbertroad.html<PRE>T:Dublin Lasses
T:Dublin Lasses
M:C|
L:1/8
R:reel
D:Brendan Mulvihill and Donna Long: The Morning Dew
Z:Devin McCabe
K:F
cF F/2F/2F cFdF|cFFG AGGA|cFAc dAcA|GcAG FDDd|
!cF F/2F/2F dF F/2F/2F|cF F/2F/2F dF F/2F/2F|DEFA dAcA|1GcAG FDDd:|2GcAG
 FDDg|
!:f~c3 Aceg|fcfg afde|f~c3 AFFD|GBAG FDDg|
!f~c3 Aceg|f/2f/2f fg afdf|afge fdcA|1GcAG FDDg:|2GcAG FDDc|
!:Addc Addc|Addc AcGc|Addc AcAG|F/2F/2F dc AGGc|
!Addc Addc|Addc AGGF|DEFA dAcA|1GcAG FDDc:|2GcAG FDDd||
albertroad.htmlalbertroad.htmlalbertroad.htmlalbertroad.htmlalbertroad.htmlalbertroad.htmlalbertroad.html